X: 28796
T: My Maid Mary
R: jig
M: 6/8
K: Gmajor
g2f gde|d2c Bcd|edc dBG|AEG F2D|
BAG EFG|cBA FGA|dcB cAd|ed^c d2=c|
BAG FGA|Be^d e2f|gfe ^dBd|fe^d e2f|
gdc BcA|BAG FGA|BAG FGA|BcA G3||

